projects/cadence/stacked/white/cadence-stacked-white.svg

<svg xmlns="http://www.w3.org/2000/svg" role="img" viewBox="16.42 29.42 1070.16 764.16"><path fill="#fcfcfc" fill-rule="evenodd" d="M559.965 53.225c-.02 1.801-1.032 6.189-2.25 9.75-1.78 5.202-3.045 7.102-6.44 9.671-5.15 3.897-13.401 6.46-22.888 7.111-10.371.712-13.058-.53-22.127-10.223l-7.791-8.327-11.985 4.977c-15.816 6.569-15.653 6.386-14.296 15.939 1.597 11.246.727 14.19-6.19 20.958-6.914 6.766-20.249 13.931-25.864 13.897-4.065-.025-10.251-2.57-17.439-7.177-5.904-3.784-5.786-3.836-18.591 8.102l-9.397 8.761 4.147 8.284c6.586 13.159 5.314 20.552-5.824 33.844-8.612 10.277-14.844 12.395-28.496 9.686-4.748-.942-8.8-1.545-9.005-1.341-.204.205-3.517 6.144-7.362 13.198l-6.99 12.826 6.872 6.75c3.78 3.713 7.34 7.981 7.911 9.485 1.828 4.806 1.206 14.256-1.459 22.196-3.113 9.274-6.405 14.572-10.687 17.199-3.185 1.954-11.504 3.928-18.779 4.457-3.078.224-3.548.642-4.212 3.752-.411 1.925-1.054 8.949-1.43 15.609l-.683 12.11 6.27 2.117c13.856 4.679 17.21 10.182 17.778 29.164.351 11.76.228 12.766-2.085 17-1.98 3.623-3.849 5.25-9.59 8.346-11.144 6.01-11.72 8.329-6.896 27.752l2.184 8.792 6.064-.559c3.426-.315 7.954-.047 10.406.618 10.013 2.715 19.96 17.541 20.938 31.21.681 9.508-1.328 14.355-8.732 21.077l-5.798 5.264 7.852 12.426c4.318 6.835 8.282 12.857 8.808 13.383.61.61 3.348 0 7.535-1.676 7.929-3.174 15.069-3.433 20.346-.738 4.549 2.323 13.02 10.778 17.963 17.928 4.944 7.151 4.941 12.468-.012 23.898l-3.543 8.175 12.429 9.643 12.429 9.644 4.067-4.19c5.765-5.941 13.737-9.418 19.732-8.608 10.101 1.365 27.05 11.777 30.872 18.965 1.563 2.94 2.054 12.413 1.071 20.64-.283 2.366.395 2.718 13.702 7.102 7.7 2.537 14.343 4.425 14.762 4.194.419-.23 2.381-2.976 4.36-6.102 7.714-12.185 12.016-14.693 23.839-13.902 9.524.638 19.291 3.529 23.966 7.095 2.078 1.585 5.032 5.829 7.72 11.091l4.353 8.523 14.731.004c14.475.005 14.739-.034 15.193-2.245 2.825-13.767 4.286-16.921 9.741-21.031 4.316-3.252 11.273-5.547 20.98-6.92 10.901-1.541 14.677.019 23.671 9.779 4.292 4.658 7.613 7.422 8.918 7.422 2.562 0 23.265-8.581 25.089-10.399 1.086-1.082 1.101-2.773.082-9.427-1.553-10.144-.487-14.303 5.155-20.116 4.959-5.11 14.968-11.694 19.834-13.045 8.099-2.25 13.963-.987 23.573 5.078 3.281 2.071 6.501 3.46 7.154 3.087 1.915-1.094 21.342-18.621 21.361-19.272.033-1.103-38.861-38.906-40.029-38.906-.637 0-6.399 4.233-12.806 9.407-16.248 13.123-29.481 21.751-44.647 29.11C649.548 520.049 623.292 526 589.123 526c-24.667 0-46.527-3.486-69.123-11.023-75.329-25.128-124.139-80.922-140.234-160.299-2.043-10.08-2.264-13.977-2.25-39.678.015-25.838.229-29.481 2.286-39 8.508-39.368 22.961-69.068 47.467-97.541 33.669-39.12 75.35-61.551 131.231-70.623 12.324-2.001 49.68-1.706 61.277.483 37.642 7.108 66.497 19.869 97.023 42.908 6.394 4.825 11.937 8.773 12.319 8.773 1.043 0 7.258-7.769 19.999-25 16.183-21.886 15.319-20.22 12.071-23.261-1.479-1.385-6.896-5.713-12.038-9.618l-9.349-7.099-5.651 4.438c-6.95 5.457-11.785 7.548-17.369 7.513-8.441-.053-26.732-9.919-30.903-16.669-1.777-2.875-2.307-5.652-2.787-14.592l-.592-11.041-11.467-3.835c-15.572-5.209-16.057-5.163-20.914 1.988-4.599 6.773-10.073 11.875-13.722 12.791-3.47.871-21.023-.193-25.515-1.546-8.241-2.483-12.732-7.196-16.33-17.139l-2.328-6.43-16.112-.275L560 49.95l-.035 3.275m5.73 74.893c-4.843.467-14.015 2.017-20.383 3.445-78.144 17.527-137.37 82.548-147.34 161.756-1.832 14.55-.802 45.37 1.977 59.181C415.187 428.229 473.058 485.574 551 502.179c14.467 3.082 52.064 3.335 67.5.455 36.923-6.89 72.417-24.652 94.918-47.499l6.919-7.025-15.085-15.805c-8.296-8.693-17.104-17.769-19.572-20.169l-4.488-4.364-7.852 6.39c-14.95 12.169-34.138 22.488-50.745 27.289-16.427 4.748-46.905 5.686-63.595 1.956-39.335-8.791-70.954-33.407-88.932-69.236-4.206-8.381-9.992-25.836-11.659-35.171-1.913-10.713-1.816-39.096.167-48.792 3.237-15.828 11.145-35.017 19.506-47.329 5.774-8.502 19.645-22.768 28.975-29.8 13.951-10.514 37.15-20.769 55.614-24.583 4.272-.882 13.631-1.865 20.798-2.183 29.485-1.312 56.504 6.973 81.292 24.927l9.502 6.882 2.991-2.811c3.981-3.742 23.964-25.376 30.235-32.733l4.99-5.854-5.99-5.391c-8.858-7.973-25.128-18.645-37.808-24.798-32.356-15.704-66.942-21.888-102.986-18.417M112.633 589.493c-23.688 4.912-43.257 16.916-56.736 34.804-7.387 9.804-12.052 18.913-15.576 30.415-2.486 8.114-2.693 10.13-2.693 26.288 0 16.234.199 18.151 2.746 26.5 5 16.384 14.68 31.959 26.508 42.648C79.269 761.342 98.691 770.41 116 773.081c10.701 1.651 31.52.652 41.5-1.991 10.941-2.897 24.412-9.781 34.023-17.387 9.548-7.555 19.302-19.191 17.902-21.354-.509-.786-5.418-4.545-10.909-8.354l-9.985-6.925-7.798 8.413c-12.098 13.05-24.289 19.369-41.233 21.376-22.82 2.701-45.201-6.037-59.214-23.12-19.831-24.175-19.698-61.757.304-85.88 12.11-14.605 31.767-23.795 51-23.842 18.15-.044 39.536 10.332 50.665 24.581 2.32 2.971 4.655 5.402 5.188 5.402 1.49 0 22.557-14.154 22.557-15.155 0-.485-4.838-5.764-10.75-11.731-14.625-14.76-25.544-21.427-42.876-26.181-10.215-2.802-33.478-3.568-43.741-1.44M468 622.604v31.603l-3.442-3.022c-18.126-15.914-50.279-18.858-73.358-6.716-14.393 7.571-24.076 17.709-30.917 32.368-17.961 38.486 4.008 84.624 45.326 95.191 8.74 2.235 23.17 2.628 31.592.859 7.149-1.501 19.013-7.053 25.441-11.907l5.267-3.976.295 6.748.296 6.748h27l.255-89.75.256-89.75H468v31.604m-200.64 15.872c-3.927.713-8.877 1.853-11 2.533-5.168 1.655-18.155 8.475-21.753 11.424l-2.893 2.37 5.893 9.593c3.241 5.277 6.343 9.583 6.893 9.571.55-.013 3.635-1.774 6.855-3.914 8.301-5.516 19.659-8.449 30.193-7.797 16.183 1.001 23.431 8.382 23.446 23.879l.006 5.635-5.25.59c-2.887.325-12.45 1.088-21.25 1.696-8.8.608-19.15 1.741-23 2.517-21.935 4.425-34.585 19.626-33.278 39.99 1.15 17.92 15.221 32.829 34.314 36.359 17.721 3.276 35.792-1.548 46.439-12.396l4.274-4.355 3.168 4.153c6.448 8.455 12.723 10.902 26.829 10.464l9.254-.288.285-10.855c.187-7.147-.111-11.332-.873-12.25-.688-.829-3.054-1.395-5.834-1.395-2.573 0-5.218-.54-5.878-1.2-.883-.883-1.205-9.787-1.217-33.75-.02-36.323-.683-42.005-6.006-51.437-10.035-17.781-33.083-25.952-59.617-21.137m302.64-.789c-12.942 2.144-26.063 9.166-36.175 19.36-21.244 21.415-25.8 55.096-11.087 81.953 5.241 9.568 18.703 22.54 28.262 27.235 11.916 5.854 18.502 7.25 34 7.211 12.126-.03 14.314-.316 21.5-2.813 4.4-1.529 10.475-4.185 13.5-5.902 6.077-3.449 21.449-17.895 20.868-19.609-.202-.597-4.566-4.173-9.696-7.946l-9.328-6.86-5.871 5.871c-3.774 3.774-8.298 7.02-12.671 9.091-6.44 3.051-7.416 3.222-18.35 3.222-11.334 0-11.69-.07-19.158-3.759-11.527-5.694-20.83-17.026-22.518-27.429l-.538-3.312H648v-5.276c0-14.316-3.576-29.229-9.677-40.354-4.024-7.338-17.586-20.256-25.323-24.12-9.59-4.789-20.571-7.276-31.41-7.114-4.999.075-10.215.323-11.59.551m146.251.858c-6.532 1.759-11.615 4.323-17.552 8.855l-4.602 3.513-.298-5.707-.299-5.706h-27l-.257 65.778-.257 65.779 13.757-.279 13.757-.278.5-43.5.5-43.5 2.801-5.704c5.013-10.208 14.766-15.993 27.097-16.073 11.802-.076 21.501 5.566 26.891 15.643 2.162 4.043 2.222 5.112 2.711 48.634l.5 44.5 13.75.278 13.75.278-.008-43.278c-.004-24.77-.447-46.058-1.037-49.778-2.968-18.734-16.405-33.905-34.887-39.388-6.746-2.002-22.501-2.037-29.817-.067m135.979.47c-12.12 3.176-22.605 9.252-31.801 18.43-9.019 9-13.061 15.413-16.863 26.753-9.365 27.934 1.229 59.667 25.645 76.814 14.139 9.93 27.641 13.636 46.208 12.684 14.459-.742 22.99-3.465 33.525-10.701 6.628-4.553 18.444-16.337 17.924-17.875-.202-.599-4.58-4.16-9.727-7.915l-9.36-6.826-5.839 5.839c-3.744 3.744-8.279 6.995-12.64 9.06-6.435 3.048-7.423 3.222-18.302 3.222-11.064 0-11.747-.126-18-3.33-22.287-11.42-30.84-36.818-20.116-59.736 7.776-16.617 26.901-26.761 44.703-23.712 8.981 1.538 16.391 5.39 23.923 12.436l6.333 5.925 9.553-6.792c5.254-3.735 9.564-7.292 9.578-7.904.045-1.913-12.178-13.706-18.738-18.078-6.851-4.567-14.945-7.926-22.589-9.376-8.339-1.581-25.354-1.031-33.417 1.082m131.77-.46c-25.011 5.372-46.738 28.608-50.934 54.471-6.776 41.763 21.91 78.138 63.64 80.698 22.36 1.371 42.373-6.321 56.699-21.794 3.077-3.324 5.582-6.356 5.567-6.737-.015-.381-4.403-3.896-9.75-7.81l-9.722-7.118-7.13 6.751c-8.975 8.497-15.154 11.1-27.87 11.74-18.541.934-32.627-7.126-40.807-23.35-1.413-2.801-2.709-6.401-2.881-8l-.312-2.906 52.869-.259 52.869-.259-.682-10.741c-1.329-20.968-7.011-34.751-19.512-47.335-12.575-12.66-28.299-18.946-47.044-18.809-4.675.034-11.425.69-15 1.458m-569.898 24.028c-11.599 3.119-22.369 12.059-28.024 23.263-11.012 21.814-1.996 47.9 20.444 59.155 6.763 3.391 7.332 3.499 18.478 3.499s11.715-.108 18.478-3.499c17.532-8.793 27.045-26.738 24.382-45.994-3.562-25.745-29.106-43.053-53.758-36.424m156.398-.184c-12.232 3.868-21.549 12.987-25.915 25.361l-1.48 4.194 38.306.273 38.307.273-.817-2.848c-2.426-8.453-8.342-16.795-15.311-21.59-9.181-6.317-23.353-8.742-33.09-5.663m417.786-.007c-6.562 2.142-12.425 5.98-17.622 11.536-4.384 4.687-9.631 13.83-9.654 16.822-.008.978 8.265 1.25 38.057 1.25h38.068l-.687-2.25c-3.469-11.366-10.449-19.656-20.868-24.785-5.689-2.801-8.074-3.383-14.925-3.641-5.034-.189-9.768.22-12.369 1.068M283 715.556c-18.876 1.69-20.344 1.948-25.615 4.5-5.861 2.837-8.8 8.271-8.148 15.063.554 5.763 2.578 9.068 7.58 12.378 11.853 7.844 33.972 3.478 42.563-8.401 4.411-6.1 5.62-10.025 5.62-18.245V714l-3.75.129c-2.062.071-10.275.713-18.25 1.427"/></svg>

<svg xmlns="http://www.w3.org/2000/svg" width="1100" height="800" viewBox="0 0 1100 800" version="1.1"><path d="M 559.965 53.225 C 559.945 55.026, 558.933 59.414, 557.715 62.975 C 555.935 68.177, 554.670 70.077, 551.275 72.646 C 546.125 76.543, 537.874 79.106, 528.387 79.757 C 518.016 80.469, 515.329 79.227, 506.260 69.534 L 498.469 61.207 486.484 66.184 C 470.668 72.753, 470.831 72.570, 472.188 82.123 C 473.785 93.369, 472.915 96.313, 465.998 103.081 C 459.084 109.847, 445.749 117.012, 440.134 116.978 C 436.069 116.953, 429.883 114.408, 422.695 109.801 C 416.791 106.017, 416.909 105.965, 404.104 117.903 L 394.707 126.664 398.854 134.948 C 405.440 148.107, 404.168 155.500, 393.030 168.792 C 384.418 179.069, 378.186 181.187, 364.534 178.478 C 359.786 177.536, 355.734 176.933, 355.529 177.137 C 355.325 177.342, 352.012 183.281, 348.167 190.335 L 341.177 203.161 348.049 209.911 C 351.829 213.624, 355.389 217.892, 355.960 219.396 C 357.788 224.202, 357.166 233.652, 354.501 241.592 C 351.388 250.866, 348.096 256.164, 343.814 258.791 C 340.629 260.745, 332.310 262.719, 325.035 263.248 C 321.957 263.472, 321.487 263.890, 320.823 267 C 320.412 268.925, 319.769 275.949, 319.393 282.609 L 318.710 294.719 324.980 296.836 C 338.836 301.515, 342.190 307.018, 342.758 326 C 343.109 337.760, 342.986 338.766, 340.673 343 C 338.693 346.623, 336.824 348.250, 331.083 351.346 C 319.939 357.356, 319.363 359.675, 324.187 379.098 L 326.371 387.890 332.435 387.331 C 335.861 387.016, 340.389 387.284, 342.841 387.949 C 352.854 390.664, 362.801 405.490, 363.779 419.159 C 364.460 428.667, 362.451 433.514, 355.047 440.236 L 349.249 445.500 357.101 457.926 C 361.419 464.761, 365.383 470.783, 365.909 471.309 C 366.519 471.919, 369.257 471.309, 373.444 469.633 C 381.373 466.459, 388.513 466.200, 393.790 468.895 C 398.339 471.218, 406.810 479.673, 411.753 486.823 C 416.697 493.974, 416.694 499.291, 411.741 510.721 L 408.198 518.896 420.627 528.539 L 433.056 538.183 437.123 533.993 C 442.888 528.052, 450.860 524.575, 456.855 525.385 C 466.956 526.750, 483.905 537.162, 487.727 544.350 C 489.290 547.290, 489.781 556.763, 488.798 564.990 C 488.515 567.356, 489.193 567.708, 502.500 572.092 C 510.200 574.629, 516.843 576.517, 517.262 576.286 C 517.681 576.056, 519.643 573.310, 521.622 570.184 C 529.336 557.999, 533.638 555.491, 545.461 556.282 C 554.985 556.920, 564.752 559.811, 569.427 563.377 C 571.505 564.962, 574.459 569.206, 577.147 574.468 L 581.500 582.991 596.231 582.995 C 610.706 583, 610.970 582.961, 611.424 580.750 C 614.249 566.983, 615.710 563.829, 621.165 559.719 C 625.481 556.467, 632.438 554.172, 642.145 552.799 C 653.046 551.258, 656.822 552.818, 665.816 562.578 C 670.108 567.236, 673.429 570, 674.734 570 C 677.296 570, 697.999 561.419, 699.823 559.601 C 700.909 558.519, 700.924 556.828, 699.905 550.174 C 698.352 540.030, 699.418 535.871, 705.060 530.058 C 710.019 524.948, 720.028 518.364, 724.894 517.013 C 732.993 514.763, 738.857 516.026, 748.467 522.091 C 751.748 524.162, 754.968 525.551, 755.621 525.178 C 757.536 524.084, 776.963 506.557, 776.982 505.906 C 777.015 504.803, 738.121 467, 736.953 467 C 736.316 467, 730.554 471.233, 724.147 476.407 C 707.899 489.530, 694.666 498.158, 679.500 505.517 C 649.548 520.049, 623.292 526, 589.123 526 C 564.456 526, 542.596 522.514, 520 514.977 C 444.671 489.849, 395.861 434.055, 379.766 354.678 C 377.723 344.598, 377.502 340.701, 377.516 315 C 377.531 289.162, 377.745 285.519, 379.802 276 C 388.310 236.632, 402.763 206.932, 427.269 178.459 C 460.938 139.339, 502.619 116.908, 558.500 107.836 C 570.824 105.835, 608.180 106.130, 619.777 108.319 C 657.419 115.427, 686.274 128.188, 716.800 151.227 C 723.194 156.052, 728.737 160, 729.119 160 C 730.162 160, 736.377 152.231, 749.118 135 C 765.301 113.114, 764.437 114.780, 761.189 111.739 C 759.710 110.354, 754.293 106.026, 749.151 102.121 L 739.802 95.022 734.151 99.460 C 727.201 104.917, 722.366 107.008, 716.782 106.973 C 708.341 106.920, 690.050 97.054, 685.879 90.304 C 684.102 87.429, 683.572 84.652, 683.092 75.712 L 682.500 64.671 671.033 60.836 C 655.461 55.627, 654.976 55.673, 650.119 62.824 C 645.520 69.597, 640.046 74.699, 636.397 75.615 C 632.927 76.486, 615.374 75.422, 610.882 74.069 C 602.641 71.586, 598.150 66.873, 594.552 56.930 L 592.224 50.500 576.112 50.225 L 560 49.950 559.965 53.225 M 565.695 128.118 C 560.852 128.585, 551.680 130.135, 545.312 131.563 C 467.168 149.090, 407.942 214.111, 397.972 293.319 C 396.140 307.869, 397.170 338.689, 399.949 352.500 C 415.187 428.229, 473.058 485.574, 551 502.179 C 565.467 505.261, 603.064 505.514, 618.500 502.634 C 655.423 495.744, 690.917 477.982, 713.418 455.135 L 720.337 448.110 705.252 432.305 C 696.956 423.612, 688.148 414.536, 685.680 412.136 L 681.192 407.772 673.340 414.162 C 658.390 426.331, 639.202 436.650, 622.595 441.451 C 606.168 446.199, 575.690 447.137, 559 443.407 C 519.665 434.616, 488.046 410, 470.068 374.171 C 465.862 365.790, 460.076 348.335, 458.409 339 C 456.496 328.287, 456.593 299.904, 458.576 290.208 C 461.813 274.380, 469.721 255.191, 478.082 242.879 C 483.856 234.377, 497.727 220.111, 507.057 213.079 C 521.008 202.565, 544.207 192.310, 562.671 188.496 C 566.943 187.614, 576.302 186.631, 583.469 186.313 C 612.954 185.001, 639.973 193.286, 664.761 211.240 L 674.263 218.122 677.254 215.311 C 681.235 211.569, 701.218 189.935, 707.489 182.578 L 712.479 176.724 706.489 171.333 C 697.631 163.360, 681.361 152.688, 668.681 146.535 C 636.325 130.831, 601.739 124.647, 565.695 128.118 M 112.633 589.493 C 88.945 594.405, 69.376 606.409, 55.897 624.297 C 48.510 634.101, 43.845 643.210, 40.321 654.712 C 37.835 662.826, 37.628 664.842, 37.628 681 C 37.628 697.234, 37.827 699.151, 40.374 707.500 C 45.374 723.884, 55.054 739.459, 66.882 750.148 C 79.269 761.342, 98.691 770.410, 116 773.081 C 126.701 774.732, 147.520 773.733, 157.500 771.090 C 168.441 768.193, 181.912 761.309, 191.523 753.703 C 201.071 746.148, 210.825 734.512, 209.425 732.349 C 208.916 731.563, 204.007 727.804, 198.516 723.995 L 188.531 717.070 180.733 725.483 C 168.635 738.533, 156.444 744.852, 139.500 746.859 C 116.680 749.560, 94.299 740.822, 80.286 723.739 C 60.455 699.564, 60.588 661.982, 80.590 637.859 C 92.700 623.254, 112.357 614.064, 131.590 614.017 C 149.740 613.973, 171.126 624.349, 182.255 638.598 C 184.575 641.569, 186.910 644, 187.443 644 C 188.933 644, 210 629.846, 210 628.845 C 210 628.360, 205.162 623.081, 199.250 617.114 C 184.625 602.354, 173.706 595.687, 156.374 590.933 C 146.159 588.131, 122.896 587.365, 112.633 589.493 M 468 622.604 L 468 654.207 464.558 651.185 C 446.432 635.271, 414.279 632.327, 391.200 644.469 C 376.807 652.040, 367.124 662.178, 360.283 676.837 C 342.322 715.323, 364.291 761.461, 405.609 772.028 C 414.349 774.263, 428.779 774.656, 437.201 772.887 C 444.350 771.386, 456.214 765.834, 462.642 760.980 L 467.909 757.004 468.204 763.752 L 468.500 770.500 482 770.500 L 495.500 770.500 495.755 680.750 L 496.011 591 482.005 591 L 468 591 468 622.604 M 267.360 638.476 C 263.433 639.189, 258.483 640.329, 256.360 641.009 C 251.192 642.664, 238.205 649.484, 234.607 652.433 L 231.714 654.803 237.607 664.396 C 240.848 669.673, 243.950 673.979, 244.500 673.967 C 245.050 673.954, 248.135 672.193, 251.355 670.053 C 259.656 664.537, 271.014 661.604, 281.548 662.256 C 297.731 663.257, 304.979 670.638, 304.994 686.135 L 305 691.770 299.750 692.360 C 296.863 692.685, 287.300 693.448, 278.500 694.056 C 269.700 694.664, 259.350 695.797, 255.500 696.573 C 233.565 700.998, 220.915 716.199, 222.222 736.563 C 223.372 754.483, 237.443 769.392, 256.536 772.922 C 274.257 776.198, 292.328 771.374, 302.975 760.526 L 307.249 756.171 310.417 760.324 C 316.865 768.779, 323.140 771.226, 337.246 770.788 L 346.500 770.500 346.785 759.645 C 346.972 752.498, 346.674 748.313, 345.912 747.395 C 345.224 746.566, 342.858 746, 340.078 746 C 337.505 746, 334.860 745.460, 334.200 744.800 C 333.317 743.917, 332.995 735.013, 332.983 711.050 C 332.963 674.727, 332.300 669.045, 326.977 659.613 C 316.942 641.832, 293.894 633.661, 267.360 638.476 M 570 637.687 C 557.058 639.831, 543.937 646.853, 533.825 657.047 C 512.581 678.462, 508.025 712.143, 522.738 739 C 527.979 748.568, 541.441 761.540, 551 766.235 C 562.916 772.089, 569.502 773.485, 585 773.446 C 597.126 773.416, 599.314 773.130, 606.500 770.633 C 610.900 769.104, 616.975 766.448, 620 764.731 C 626.077 761.282, 641.449 746.836, 640.868 745.122 C 640.666 744.525, 636.302 740.949, 631.172 737.176 L 621.844 730.316 615.973 736.187 C 612.199 739.961, 607.675 743.207, 603.302 745.278 C 596.862 748.329, 595.886 748.500, 584.952 748.500 C 573.618 748.500, 573.262 748.430, 565.794 744.741 C 554.267 739.047, 544.964 727.715, 543.276 717.312 L 542.738 714 595.369 714 L 648 714 648 708.724 C 648 694.408, 644.424 679.495, 638.323 668.370 C 634.299 661.032, 620.737 648.114, 613 644.250 C 603.410 639.461, 592.429 636.974, 581.590 637.136 C 576.591 637.211, 571.375 637.459, 570 637.687 M 716.251 638.545 C 709.719 640.304, 704.636 642.868, 698.699 647.400 L 694.097 650.913 693.799 645.206 L 693.500 639.500 680 639.500 L 666.500 639.500 666.243 705.278 L 665.986 771.057 679.743 770.778 L 693.500 770.500 694 727 L 694.500 683.500 697.301 677.796 C 702.314 667.588, 712.067 661.803, 724.398 661.723 C 736.200 661.647, 745.899 667.289, 751.289 677.366 C 753.451 681.409, 753.511 682.478, 754 726 L 754.500 770.500 768.250 770.778 L 782 771.056 781.992 727.778 C 781.988 703.008, 781.545 681.720, 780.955 678 C 777.987 659.266, 764.550 644.095, 746.068 638.612 C 739.322 636.610, 723.567 636.575, 716.251 638.545 M 852.230 639.015 C 840.110 642.191, 829.625 648.267, 820.429 657.445 C 811.410 666.445, 807.368 672.858, 803.566 684.198 C 794.201 712.132, 804.795 743.865, 829.211 761.012 C 843.350 770.942, 856.852 774.648, 875.419 773.696 C 889.878 772.954, 898.409 770.231, 908.944 762.995 C 915.572 758.442, 927.388 746.658, 926.868 745.120 C 926.666 744.521, 922.288 740.960, 917.141 737.205 L 907.781 730.379 901.942 736.218 C 898.198 739.962, 893.663 743.213, 889.302 745.278 C 882.867 748.326, 881.879 748.500, 871 748.500 C 859.936 748.500, 859.253 748.374, 853 745.170 C 830.713 733.750, 822.160 708.352, 832.884 685.434 C 840.660 668.817, 859.785 658.673, 877.587 661.722 C 886.568 663.260, 893.978 667.112, 901.510 674.158 L 907.843 680.083 917.396 673.291 C 922.650 669.556, 926.960 665.999, 926.974 665.387 C 927.019 663.474, 914.796 651.681, 908.236 647.309 C 901.385 642.742, 893.291 639.383, 885.647 637.933 C 877.308 636.352, 860.293 636.902, 852.230 639.015 M 984 638.555 C 958.989 643.927, 937.262 667.163, 933.066 693.026 C 926.290 734.789, 954.976 771.164, 996.706 773.724 C 1019.066 775.095, 1039.079 767.403, 1053.405 751.930 C 1056.482 748.606, 1058.987 745.574, 1058.972 745.193 C 1058.957 744.812, 1054.569 741.297, 1049.222 737.383 L 1039.500 730.265 1032.370 737.016 C 1023.395 745.513, 1017.216 748.116, 1004.500 748.756 C 985.959 749.690, 971.873 741.630, 963.693 725.406 C 962.280 722.605, 960.984 719.005, 960.812 717.406 L 960.500 714.500 1013.369 714.241 L 1066.238 713.982 1065.556 703.241 C 1064.227 682.273, 1058.545 668.490, 1046.044 655.906 C 1033.469 643.246, 1017.745 636.960, 999 637.097 C 994.325 637.131, 987.575 637.787, 984 638.555 M 414.102 662.583 C 402.503 665.702, 391.733 674.642, 386.078 685.846 C 375.066 707.660, 384.082 733.746, 406.522 745.001 C 413.285 748.392, 413.854 748.500, 425 748.500 C 436.146 748.500, 436.715 748.392, 443.478 745.001 C 461.010 736.208, 470.523 718.263, 467.860 699.007 C 464.298 673.262, 438.754 655.954, 414.102 662.583 M 570.500 662.399 C 558.268 666.267, 548.951 675.386, 544.585 687.760 L 543.105 691.954 581.411 692.227 L 619.718 692.500 618.901 689.652 C 616.475 681.199, 610.559 672.857, 603.590 668.062 C 594.409 661.745, 580.237 659.320, 570.500 662.399 M 988.286 662.392 C 981.724 664.534, 975.861 668.372, 970.664 673.928 C 966.280 678.615, 961.033 687.758, 961.010 690.750 C 961.002 691.728, 969.275 692, 999.067 692 L 1037.135 692 1036.448 689.750 C 1032.979 678.384, 1025.999 670.094, 1015.580 664.965 C 1009.891 662.164, 1007.506 661.582, 1000.655 661.324 C 995.621 661.135, 990.887 661.544, 988.286 662.392 M 283 715.556 C 264.124 717.246, 262.656 717.504, 257.385 720.056 C 251.524 722.893, 248.585 728.327, 249.237 735.119 C 249.791 740.882, 251.815 744.187, 256.817 747.497 C 268.670 755.341, 290.789 750.975, 299.380 739.096 C 303.791 732.996, 305 729.071, 305 720.851 L 305 714 301.250 714.129 C 299.188 714.200, 290.975 714.842, 283 715.556" stroke="none" fill="#fcfcfc" fill-rule="evenodd"/></svg>
